!!!!SEGMENT: pl-cz--iii-370--001-006_krogulski-jozef-wladyslaw--msza-c-sanctus.krn
!!!cenid: 18xx:943
!!!COM: Krogulski, Józef Władysław
!!!COM-rismid: pe30001797
!!!CDT: 1815/10/04-1842/01/09
!!!CNT: Polish
!!!OPR: Msza C
!!!OTL: Sanctus
!!!OMV: 006
!!!PDT:
!!!AGN: Sacred; Mass
!!!SMS-siglum: PL-CZ
!!!SMS-shelfmark: III-370
!!!SMS-shelfwork: 001-006 M
!!!SMS-variant:
!!!SMS-altvar:
!!!NIFC-rismid: 300000646
!!!URL-scan: http://repozytorium.nifc.pl/skany/pl-cz-nut--iii-370
!!!ONB-nifc: UWAGA: części Mszy: Kyrie, Gloria, Andante przed Ewangelią, Credo, Offertorium, Sanctus, Benedictus, Agnus, Na Benedykcyią
!!!key: C
**kern	**kern	**dynam	**kern	**text	**dynam	**kern	**text	**dynam	**kern	**text
*part4	*part4	*part4	*part3	*part3	*part3	*part2	*part2	*part2	*part1	*part1
*staff5	*staff4	*	*staff3	*staff3	*	*staff2	*staff2	*	*staff1	*staff1
*	*	*	*group1	*	*	*group1	*	*	*group1	*
*I"Organ	*	*	*I"Bas	*	*	*I"Spiew Drugi	*	*	*I"Spiew Pierwszy	*
*I'org	*	*	*I'B	*	*	*I'V 2	*	*	*I'V 1	*
*Iorgan	*	*	*Ibass	*	*	*Ivox	*	*	*Ivox	*
*ICklav	*	*	*ICvox	*	*	*ICvox	*	*	*ICvox	*
*IGacmp	*	*	*IGcoro	*	*	*IGcoro	*	*	*IGcoro	*
*clefF4	*clefG2	*	*clefF4	*	*	*clefG2	*	*	*clefG2	*
*k[]	*k[]	*	*k[]	*	*	*k[]	*	*	*k[]	*
*C:	*C:	*	*C:	*	*	*C:	*	*	*C:	*
*M4/4	*M4/4	*	*M4/4	*	*	*M4/4	*	*	*M4/4	*
*met(c)	*met(c)	*	*met(c)	*	*	*met(c)	*	*	*met(c)	*
*all\right	*all\right	*	*all\right	*	*	*all\right	*	*	*all\right	*
=1	=1	=1	=1	=1	=1	=1	=1	=1	=1	=1
!	!LO:TX:a:B:t=Adagio Maestozo	!LO:DY:rj	!LO:TX:a:B:t=Adagio	!	!LO:DY:a:t=fo	!LO:TX:a:B:t=Adagio	!	!LO:DY:a:t=for	!LO:TX:a:B:t=Adagio	!
[1C [1CC	4.e 4.c/	f	2C/	Swię-	f	(4.c/	Swię-	f	(4.e/	Swię-
.	8f 8d/	.	.	.	.	8d/)	.	.	8f/)	.
.	4g 4e/	.	4C/	-ty	.	4e/	-ty	.	4g/	-ty
.	4r	.	4r	.	.	4r	.	.	4r	.
=2	=2	=2	=2	=2	=2	=2	=2	=2	=2	=2
*	*	*	*	*ij	*	*	*ij	*	*	*ij
1C] 1CC]	4.cc 4.e\	.	2C/	Swię-	.	(4.e/	Swię-	.	(4.cc\	Swię-
.	8dd 8f\	.	.	.	.	8f/)	.	.	8dd\)	.
.	4ee 4g\	.	4C/	-ty	.	4g/	-ty	.	4ee\	-ty
.	4r	.	4r	.	.	4r	.	.	4r	.
=3	=3	=3	=3	=3	=3	=3	=3	=3	=3	=3
*	*2\right	*	*	*	*	*2\right	*	*	*2\right	*
1C 1CC	2.ee 2.cc\	.	1c	Swię-	.	(2.cc\	Swię-	.	2.ee\	Swię-
.	4ff 4dd\	.	.	.	.	4dd\)	.	.	4ff\	.
=4	=4	=4	=4	=4	=4	=4	=4	=4	=4	=4
2C 2CC/	2gg 2ee\	.	2C/	-ty	.	2ee\	-ty	.	2gg\	-ty
*	*	*	*	*Xij	*	*	*Xij	*	*	*Xij
2r	2r	.	2r	.	.	2r	.	.	2r	.
=5	=5	=5	=5	=5	=5	=5	=5	=5	=5	=5
2C/	2ee 2cc 2g\	.	2C/	Wła-	.	2cc\	Wła-	.	2ee\	Wla-
!	!	!	!	!	!	!	!LO:SIC:v:l:s=-dca	!	!	!
4E\	2ryy	.	4E/	-dzca	.	4cc\	-dzcz	.	4ee\	-dzca
4C\	.	.	4C/	za-	.	4cc\	za-	.	4ee\	za-
=6	=6	=6	=6	=6	=6	=6	=6	=6	=6	=6
*2\right	*	*	*2\right	*	*	*	*	*	*	*
!	!	!	!	!	!	!LO:N:vis=2	!	!	!	!
2.G\	2.ee 2.cc 2.g\	.	2.G\	-stę-	.	2.dd\	-stę-	.	2.ff\	-stę-
4BB/	4dd 4g\	.	4BB/	-pow	.	4g/	-pow	.	4dd\	-pow
!	!	!	!	!	!	!LO:LB:g=original	!	!	!	!
=7	=7	=7	=7	=7	=7	=7	=7	=7	=7	=7
*	*^	*	*	*	*	*	*	*	*	*
!	!	!LO:N:vis=2	!	!	!	!	!	!	!	!	!
4c 4C\	4ee/	2g.\	.	4C/	Pan	.	4g/	Pan	.	4ee\	Pan
4B 4BB\	4dd/	.	.	4BB/	Bog	.	4g/	Bog	.	4dd\	bog
!	!	!	!	!LO:LB:g=original	!	!	!	!	!	!	!
4c 4C\	4ee\	.	.	4C/	nie-	.	4g/	nie-	.	4ee\	nie-
*	*	*	*	*	*	*	*	*	*	*	*above
4A 4AA\	4ff#X/	4cc\	.	4AA/	-po-	.	4cc\	-po-	.	4ff#X\	-po-
*	*v	*v	*	*	*	*	*	*	*	*	*
!	!	!	!	!	!	!	!	!	!LO:LB:g=original	!
=8	=8	=8	=8	=8	=8	=8	=8	=8	=8	=8
*	*	*	*	*	*	*	*	*	*	*below
2G 2AA\	2gg 2b\	.	2GG/	-ię-	.	2b\	-ię-	.	2gg\	-ię-
4G 4GG\	4g/	.	4GG/	-ty	.	4g/	-ty	.	4g/	-ty
4r	4r	.	4r	.	.	4r	.	.	4r	.
=9	=9	=9	=9	=9	=9	=9	=9	=9	=9	=9
4C\	1ee 1cc	.	(4C/	pel-	.	2cc\	Peł-	.	2ee\	Pel-
4D\	.	.	4D/)	.	.	.	.	.	.	.
4E\	.	.	4E/	-ne	.	4cc\	-ne	.	4ee\	-ne
4F#X\	.	.	4F#X\	iest	.	4cc\	iest	.	4ee\	iest
=10	=10	=10	=10	=10	=10	=10	=10	=10	=10	=10
2G\	2dd 2b\	.	2G\	Nie-	.	2b\	Nie-	.	2dd\	Nie-
2C\	2ee 2cc\	.	2C/	-bo	.	2cc\	-bo	.	2ee\	-ba
!LO:LB:g=original	!LO:LB:g=original	!	!	!	!	!	!	!	!	!
=11	=11	=11	=11	=11	=11	=11	=11	=11	=11	=11
[1D	4dd 4b\	.	4D\	pe-	.	4b\	pe-	.	4dd\	pe-
.	4b 4g\	.	4D\	-łen	.	4g\	-łen	.	4b\	-łen
.	4cc 4a\	.	4D\	iest	.	4a\	iest	.	4cc\	iest
.	4dd 4b\	.	4D\	swiat	.	4b\	swiat	.	4dd\	swiat
=12	=12	=12	=12	=12	=12	=12	=12	=12	=12	=12
*	*	*	*	*	*	*	*	*	*	*above
2D\]	2cc 2a\	.	2D\	ca-	.	2a\	ca-	.	2cc\	ca-
4G\	4b 4g\	.	4G\	-ły	.	4g\	-ły	.	4b\	-ły
4GG/	4r	.	4r	.	.	4r	.	.	4r	.
=13	=13	=13	=13	=13	=13	=13	=13	=13	=13	=13
4C\	1ee 1cc	.	1r	.	.	1r	.	.	1r	.
4D\	.	.	.	.	.	.	.	.	.	.
4E\	.	.	.	.	.	.	.	.	.	.
4F#X\	.	.	.	.	.	.	.	.	.	.
!	!	!	!LO:LB:g=original	!	!	!LO:LB:g=original	!	!	!	!
=14	=14	=14	=14	=14	=14	=14	=14	=14	=14	=14
*	*	*	*	*	*	*	*	*	*	*below
2G\	2dd 2b\	.	2G\	Je-	.	2b\	Je-	.	2dd\	je-
2C\	2ee 2cc\	.	4C/	-go	.	4cc\	-go	.	4ee\	-go
.	.	.	4C/	po-	.	4cc\	po-	.	4ee\	po-
=15	=15	=15	=15	=15	=15	=15	=15	=15	=15	=15
1D	4dd 4b\	.	2D\	-ten-	.	(4b\	-tę-	.	4dd\	-tę-
.	4cc 4a\	.	.	.	.	4a\	.	.	4cc\	.
.	4b 4g\	.	4D\	-gi	.	4g\)	-gi	.	4b\	-gi
.	4a 4f#X\	.	4D\	i	.	4f#X/	i	.	4a\	i
!	!	!	!	!	!	!	!	!	!LO:LB:g=original	!
=16	=16	=16	=16	=16	=16	=16	=16	=16	=16	=16
!	!	!	!	!	!	!LO:SIC:v:s=2f#/	!	!	!	!
2D\	2a 2f#X 2c/	.	2D\	chwa-	.	2f/	chwa-	.	2a/	chwa-
8G\	8g 8B/	.	8G\	-ły	.	8g/	-ły	.	8g/	-ły
8r	8r	.	8r	.	.	8r	.	.	8r	.
4r	4r	.	4G\	za-	.	4r	.	.	4r	.
=17	=17	=17	=17	=17	=17	=17	=17	=17	=17	=17
!	!	!LO:DY:rj	!	!	!	!	!	!	!	!
2G\	8r	p	2.B\	-brzmij-	.	1r	.	.	1r	.
.	8d/L	.	.	.	.	.	.	.	.	.
.	8f/	.	.	.	.	.	.	.	.	.
.	8b/J	.	.	.	.	.	.	.	.	.
2D\	8r	.	.	.	.	.	.	.	.	.
.	8d/L	.	.	.	.	.	.	.	.	.
.	8f/	.	4G\	-cie	.	.	.	.	.	.
.	8b/J	.	.	.	.	.	.	.	.	.
=18	=18	=18	=18	=18	=18	=18	=18	=18	=18	=18
2BB/	8r	.	2d\	go-	.	2r	.	.	2r	.
.	8d/L	.	.	.	.	.	.	.	.	.
.	8f/	.	.	.	.	.	.	.	.	.
.	8b/J	.	.	.	.	.	.	.	.	.
2GG/	8r	.	8c\	.	.	4r	.	.	4r	.
.	8d/L	.	4B\	-ry	.	.	.	.	.	.
.	8f/	.	.	.	.	4b\	Za-	.	4dd\	Za-
.	8b/J	.	8r	.	.	.	.	.	.	.
!LO:LB:g=original	!LO:LB:g=original	!	!	!	!	!	!	!	!	!
=19	=19	=19	=19	=19	=19	=19	=19	=19	=19	=19
2C\	8r	.	1r	.	.	2.cc\	-brzmij-	.	2.ee\	-brzmij-
.	8e/L	.	.	.	.	.	.	.	.	.
.	8g/	.	.	.	.	.	.	.	.	.
.	8cc/J	.	.	.	.	.	.	.	.	.
2E\	8r	.	.	.	.	.	.	.	.	.
.	8e/L	.	.	.	.	.	.	.	.	.
.	8g/	.	.	.	.	4cc\	-cie	.	4ee\	-cie
.	8cc/J	.	.	.	.	.	.	.	.	.
=20	=20	=20	=20	=20	=20	=20	=20	=20	=20	=20
2G\	8r	.	2r	.	.	(4.ee\	go-	.	(4.gg\	go-
.	8e/L	.	.	.	.	.	.	.	.	.
.	8g/	.	.	.	.	.	.	.	.	.
.	8cc/J	.	.	.	.	8dd\)	.	.	8ff\)	.
2c\	8r	.	4r	.	.	4cc\	-ry	.	4ee\	-ry
.	8e/L	.	.	.	.	.	.	.	.	.
.	8g/	.	4c\	I	.	4r	.	.	4r	.
.	8cc/J	.	.	.	.	.	.	.	.	.
=21	=21	=21	=21	=21	=21	=21	=21	=21	=21	=21
2G\	8r	.	2B\	mor-	.	1r	.	.	1r	.
.	8d/L	.	.	.	.	.	.	.	.	.
.	8f/	.	.	.	.	.	.	.	.	.
.	8b/J	.	.	.	.	.	.	.	.	.
!	!	!	!LO:LB:g=original	!	!	!	!	!	!	!
2D\	8r	.	4G\	-skie	.	.	.	.	.	.
.	8d/L	.	.	.	.	.	.	.	.	.
.	8f/	.	4G\	o-	.	.	.	.	.	.
.	8b/J	.	.	.	.	.	.	.	.	.
=22	=22	=22	=22	=22	=22	=22	=22	=22	=22	=22
2BB/	8r	.	(4.d\	-dmę-	.	2r	.	.	2r	.
.	8d/L	.	.	.	.	.	.	.	.	.
.	8f/	.	.	.	.	.	.	.	.	.
!	!	!	!LO:N:vis=4	!	!	!	!	!	!	!
.	8b/J	.	8c\)	.	.	.	.	.	.	.
2GG/	8r	.	4B\	-ty	.	4r	.	.	4r	.
.	8d/L	.	.	.	.	.	.	.	.	.
.	8f/	.	4r	.	.	4b\	i	.	4dd\	i
.	8b/J	.	.	.	.	.	.	.	.	.
!	!	!	!	!	!	!LO:LB:g=original	!	!	!	!
=23	=23	=23	=23	=23	=23	=23	=23	=23	=23	=23
2C/	8r	.	1r	.	.	2cc\	mor-	.	2ee\	mor-
.	8e/L	.	.	.	.	.	.	.	.	.
.	8g/	.	.	.	.	.	.	.	.	.
.	8cc/J	.	.	.	.	.	.	.	.	.
*	*rep	*	*	*	*	*	*	*	*	*
2E\	8r	.	.	.	.	4cc\	-skie	.	4ee\	-skie
.	8e/L	.	.	.	.	.	.	.	.	.
.	8g/	.	.	.	.	4cc\	od-	.	4ee\	od-
.	8cc/J	.	.	.	.	.	.	.	.	.
*	*Xrep	*	*	*	*	*	*	*	*	*
=24	=24	=24	=24	=24	=24	=24	=24	=24	=24	=24
*	*rep	*	*	*	*	*	*	*	*	*
2G\	8r	.	2r	.	.	(4.ee\	-mę-	.	(4.gg\	-mę-
.	8e/L	.	.	.	.	.	.	.	.	.
.	8g/	.	.	.	.	.	.	.	.	.
.	8cc/J	.	.	.	.	8dd\	.	.	8ff\)	.
*	*Xrep	*	*	*	*	*	*	*	*	*
*	*rep	*	*	*	*	*	*	*	*	*
!	!	!	!	!	!	!	!	!	!LO:LB:g=original	!
2c\	8r	.	4r	.	.	8cc\)	-ty	.	8ee\	-ty
.	8e/L	.	.	.	.	8r	.	.	8r	.
.	8g/	.	4c\	I	.	4cc\	J	.	4ee\	i
.	8cc/J	.	.	.	.	.	.	.	.	.
*	*Xrep	*	*	*	*	*	*	*	*	*
=25	=25	=25	=25	=25	=25	=25	=25	=25	=25	=25
[1c [>1C	[1ee [1cc [>1g	.	2c\	wy	.	2cc\	wy	.	2ee\	wy
.	.	.	2c\	na-	.	2cc\	na-	.	2ee\	na-
=26	=26	=26	=26	=26	=26	=26	=26	=26	=26	=26
4c] 4C\]	2ee] 2cc] 2g\]	.	4c\	-ro-	.	4cc\	-ro-	.	4ee\	-ro-
4B-X 4BB\	.	.	4B-X\	-dy	.	4cc\	-dy	.	4ee\	-dy
4A 4AA\	2ee 2cc#X 2a\	.	4A\	ied-	.	4cc#X\	ied-	.	4ee\	jed-
4G 4GG\	.	.	4G\	-no	.	4cc#\	-no	.	4ee\	-no
=27	=27	=27	=27	=27	=27	=27	=27	=27	=27	=27
*	*^	*	*	*	*	*	*	*	*	*
1F 1FF	2.dd\	1a	.	2.F\	zgo-	.	2.dd\	zgo-	.	2.dd\	zgo-
.	4dd#X\	.	.	4F\	-dnem	.	4a/	-dnem	.	4dd#X\	-dnem
*	*v	*v	*	*	*	*	*	*	*	*	*
!LO:LB:g=original	!LO:LB:g=original	!	!	!	!	!	!	!	!	!
=28	=28	=28	=28	=28	=28	=28	=28	=28	=28	=28
!	!	!	!	!	!	!	!	!	!LO:SIC:v:s=2dd#\	!
2F 2FF/	2dd#X 2a\	.	2F\	pie-	.	2a/	pie-	.	2dd\	pie-
4E 4EE/	4ee 4g#X\	.	8E\	-niem	.	8g#X/	-niem	.	8ee\	-niem
.	.	.	8r	.	.	8r	.	.	8r	.
*	*	*	*	*	*	*	*	*	*	*above
!	!	!	!LO:PB:g=original	!	!	!	!	!	!	!
4E 4EE/	4ee 4g#\	.	4E\	Spie-	.	4g#/	Spie-	.	4ee\	Spie-
=29	=29	=29	=29	=29	=29	=29	=29	=29	=29	=29
*	*	*	*	*	*	*	*	*	*	*below
2.C 2.CC/	2ee 2a/	.	2.C/	-waj-	.	2.a/	-waj-	.	(2ee\	-waj-
.	4cc 4a\	.	.	.	.	.	.	.	4cc\)	.
4F 4FF/	4a 4f\	.	4F\	-cie	.	4f/	-cie	.	4a\	-cie
=30	=30	=30	=30	=30	=30	=30	=30	=30	=30	=30
*	*	*	*	*	*	*	*above	*	*	*above
1G 1GG	2a 2e/	.	2G\	wiecz-	.	2e/	wiecz-	.	2g/	wie-
.	2f 2d/	.	2G\	-nie	.	2d/	-nie	.	2f/	-cznie
!	!	!	!	!	!	!LO:LB:g=original	!	!	!	!
=31	=31	=31	=31	=31	=31	=31	=31	=31	=31	=31
*	*	*	*	*	*	*	*below	*	*	*below
[1C [1CC	4.e 4.c/	.	2C/	Swię-	.	(4.c/	Swię-	.	(>4.e/	Swię-
.	8f 8d/	.	.	.	.	8d/)	.	.	8f/)	.
.	4g 4e/	.	4C/	-ty	.	4e/	-ty	.	4g/	-ty
!	!	!	!	!	!	!	!	!	!LO:TX:t=P:problem:brak pauzy 4r	!
.	4r	.	4r	.	.	4r	.	.	4ryy	.
!LO:PB:g=original	!LO:PB:g=original	!	!	!	!	!	!	!	!	!
=32	=32	=32	=32	=32	=32	=32	=32	=32	=32	=32
*	*	*	*	*ij	*	*	*ij	*	*	*ij
!LO:TX:a:t=P:problem:brak zakończenia ligatur	!	!	!	!	!	!	!	!	!	!
1C] 1CC]	4.cc 4.e\	.	2C/	Swię-	.	4.e/	Swię-	.	4.cc\	Swię-
.	8dd 8f\	.	.	.	.	8f/	.	.	8dd\	.
.	4ee 4g\	.	4C/	-ty	.	4g/	-ty	.	4ee\	-ty
.	4r	.	4r	.	.	4r	.	.	4r	.
=33	=33	=33	=33	=33	=33	=33	=33	=33	=33	=33
1c 1C	2.ee 2.cc\	.	1c	Swię-	.	2.cc\	Swię-	.	2.ee\	Swię-
.	4ff 4dd\	.	.	.	.	4dd\	.	.	4ff\	.
=34	=34	=34	=34	=34	=34	=34	=34	=34	=34	=34
2C 2CC/	2gg 2ee\	.	2C/	-ty	.	2ee\	-ty	.	2gg\	-ty
*	*	*	*	*Xij	*	*	*Xij	*	*	*Xij
4ryy	4r	.	4r	.	.	4r	.	.	4r	.
4C/	4ee 4cc\	.	4C/	Spie-	.	4cc\	spie-	.	4ee\	spie-
=35	=35	=35	=35	=35	=35	=35	=35	=35	=35	=35
2.C/	2ee 2cc\	.	2.C/	-waj-	.	(2cc\	-waj-	.	(2ee\	-waj-
.	4cc 4a\	.	.	.	.	4a\)	.	.	4cc\)	.
4F\	4a 4f/	.	4F\	-cie	.	4f\	-cie	.	4a\	-cie
=36	=36	=36	=36	=36	=36	=36	=36	=36	=36	=36
1G	2g 2e/	.	2E\	wiecz-	.	2e/	wiecz-	.	2g/	wie-
.	2f 2d/	.	2E\	-nie	.	2d/	-nie	.	2f/	-cznie
=37	=37	=37	=37	=37	=37	=37	=37	=37	=37	=37
[1C [1CC	4.e 4.c/	.	2.C/	Swię-	.	4.c/	Swię-	.	4.e/	Swię-
.	8f 8d/	.	.	.	.	8d/	.	.	8f/	.
.	4g 4e/	.	.	.	.	4e/	-ty	.	4g/	-ty
.	4r	.	4C/	-ty	.	4r	.	.	4r	.
=38	=38	=38	=38	=38	=38	=38	=38	=38	=38	=38
*	*	*	*	*	*	*	*	*	*	*ij
!	!	!	!LO:TX:t=P:problem:takt nr 38 oznaczony znakiem repetycji	!	!	!	!	!	!	!
1C] 1CC]	4.cc 4.e\	.	2.C/yy	Swię-	.	(4.e/	[Swię-	.	4.cc\	Swię-
.	8dd 8f\	.	.	.	.	8f/	.	.	8dd\	.
.	4ee 4g\	.	.	.	.	4g/)	-ty]	.	4ee\	-ty
.	4r	.	4C/yy	-ty	.	4r	.	.	4r	.
*	*	*	*	*ij	*	*	*	*	*	*Xij
=39	=39	=39	=39	=39	=39	=39	=39	=39	=39	=39
1C 1GG 1CC;	[1ee [1cc 1g [1e;	.	1C;	Swię-	.	1g;	Swię-	.	1ee;	swię-
=40	=40	=40	=40	=40	=40	=40	=40	=40	=40	=40
2C 2GG 2CC/	2ee] 2cc] 2g 2e/]	.	2C/	-ty	.	2g/	-ty	.	2ee\	-ty
*	*	*	*	*Xij	*	*	*	*	*	*
2ryy	2r	.	2r	.	.	2r	.	.	2r	.
==	==	==	==	==	==	==	==	==	==	==
*-	*-	*-	*-	*-	*-	*-	*-	*-	*-	*-
!!!system-decoration: [(g1)]{(s4,s5)}
!!!RDF**kern: > = above
!!!RDF**kern: < = below
!!!ENC: Tomasz Grocholski
!!!END:
!!!ENC: Andrzej Kubiczek
!!!END: 2021-11-08
